packages/icons/brands/Flow.svg

<svg width="45" height="18" viewBox="0 0 45 18" xmlns="http://www.w3.org/2000/svg">
<g>
        <path
            d="M9 18C13.9706 18 18 13.9706 18 9C18 4.02944 13.9706 0 9 0C4.02944 0 0 4.02944 0 9C0 13.9706 4.02944 18 9 18Z"
            fill="#00EF8B"
        />
        <path d="M12.9493 7.59375H10.4077V10.1354H12.9493V7.59375Z" fill="white" />
        <path
            d="M7.86772 11.0875C7.86772 11.2762 7.81177 11.4607 7.70694 11.6176C7.60212 11.7744 7.45312 11.8967 7.2788 11.9689C7.10448 12.0411 6.91267 12.06 6.72761 12.0232C6.54255 11.9864 6.37256 11.8955 6.23914 11.7621C6.10572 11.6287 6.01486 11.4587 5.97805 11.2737C5.94124 11.0886 5.96014 10.8968 6.03234 10.7225C6.10455 10.5481 6.22682 10.3992 6.38371 10.2943C6.54059 10.1895 6.72504 10.1335 6.91372 10.1335H7.86772V7.59375H6.91372C6.22271 7.59375 5.54722 7.79866 4.97267 8.18256C4.39812 8.56646 3.95031 9.11212 3.68587 9.75053C3.42144 10.3889 3.35225 11.0914 3.48706 11.7692C3.62186 12.4469 3.95462 13.0694 4.44323 13.558C4.93185 14.0467 5.55439 14.3794 6.23212 14.5142C6.90985 14.649 7.61233 14.5798 8.25074 14.3154C8.88915 14.051 9.43481 13.6032 9.81871 13.0286C10.2026 12.454 10.4075 11.7786 10.4075 11.0875V10.1335H7.86772V11.0875Z"
            fill="white"
        />
        <path
            d="M11.3615 6.32285H14.2199V3.78125H11.3615C10.4352 3.7822 9.54705 4.1506 8.89204 4.80561C8.23703 5.46062 7.86863 6.34873 7.86768 7.27505V7.59365H10.4075V7.27505C10.408 7.02235 10.5087 6.78015 10.6875 6.60163C10.8664 6.42311 11.1088 6.32285 11.3615 6.32285Z"
            fill="white"
        />
        <path d="M7.86768 10.1335H10.4075V7.59375H7.86768V10.1335Z" fill="#16FF99" />
    </g>
</svg>

<svg xmlns="http://www.w3.org/2000/svg" width="45" height="18">
    <path fill="#00EF8B" d="M9 18A9 9 0 1 0 9 0a9 9 0 0 0 0 18Z"/>
    <path fill="#fff" d="M12.95 7.594h-2.542v2.541h2.541V7.594Z"/>
    <path fill="#fff" d="M7.868 11.088a.954.954 0 1 1-.954-.954h.954v-2.54h-.954a3.494 3.494 0 1 0 3.494 3.494v-.954h-2.54v.954Zm3.493-4.765h2.859V3.78h-2.86a3.497 3.497 0 0 0-3.493 3.494v.319h2.54v-.319a.954.954 0 0 1 .954-.952Z"/>
    <path fill="#16FF99" d="M7.868 10.133h2.54v-2.54h-2.54v2.54Z"/>
</svg>
